src/lib/packages/icons/src/assets/line/exchange-vertical-circle.svg

<svg width="24" height="24" viewBox="0 0 24 24" fill="none" xmlns="http://www.w3.org/2000/svg">
<path d="M17.03 9.46997C17.323 9.76297 17.323 10.238 17.03 10.531C16.737 10.824 16.262 10.824 15.969 10.531L14.249 8.81104V15C14.249 15.414 13.913 15.75 13.499 15.75C13.085 15.75 12.749 15.414 12.749 15V7C12.749 6.697 12.9319 6.42288 13.2119 6.30688C13.4919 6.19088 13.8151 6.25497 14.0291 6.46997L17.03 9.46997ZM10.5 8.25C10.086 8.25 9.75 8.586 9.75 9V15.189L8.03003 13.469C7.73703 13.176 7.26199 13.176 6.96899 13.469C6.67599 13.762 6.67599 14.237 6.96899 14.53L9.96899 17.53C10.113 17.674 10.304 17.75 10.499 17.75C10.596 17.75 10.6929 17.7311 10.7859 17.6931C11.0659 17.5771 11.249 17.303 11.249 17V9C11.25 8.586 10.914 8.25 10.5 8.25ZM22.75 12C22.75 17.928 17.928 22.75 12 22.75C6.072 22.75 1.25 17.928 1.25 12C1.25 6.072 6.072 1.25 12 1.25C17.928 1.25 22.75 6.072 22.75 12ZM21.25 12C21.25 6.899 17.101 2.75 12 2.75C6.899 2.75 2.75 6.899 2.75 12C2.75 17.101 6.899 21.25 12 21.25C17.101 21.25 21.25 17.101 21.25 12Z" fill="currentColor"/>
</svg>

<svg xmlns="http://www.w3.org/2000/svg" width="24" height="24" fill="none"><path fill="currentColor" d="M17.03 9.47a.75.75 0 0 1-1.061 1.061l-1.72-1.72V15a.75.75 0 0 1-1.5 0V7a.75.75 0 0 1 1.28-.53l3.001 3ZM10.5 8.25a.75.75 0 0 0-.75.75v6.189l-1.72-1.72a.75.75 0 0 0-1.061 1.061l3 3a.748.748 0 0 0 1.28-.53V9a.749.749 0 0 0-.749-.75ZM22.75 12c0 5.928-4.822 10.75-10.75 10.75S1.25 17.928 1.25 12 6.072 1.25 12 1.25 22.75 6.072 22.75 12Zm-1.5 0c0-5.101-4.149-9.25-9.25-9.25S2.75 6.899 2.75 12s4.149 9.25 9.25 9.25 9.25-4.149 9.25-9.25Z"/></svg>
